logos/tv.boomerang.svg

<?xml version="1.0" encoding="UTF-8" standalone="no"?>
<!-- Created with Inkscape (http://www.inkscape.org/) -->

<svg
   xmlns:dc="http://purl.org/dc/elements/1.1/"
   xmlns:cc="http://creativecommons.org/ns#"
   xmlns:rdf="http://www.w3.org/1999/02/22-rdf-syntax-ns#"
   xmlns:svg="http://www.w3.org/2000/svg"
   xmlns="http://www.w3.org/2000/svg"
   xmlns:inkscape="http://www.inkscape.org/namespaces/inkscape"
   version="1.0"
   width="794.79919"
   height="290.48032"
   id="svg1883">
  <metadata
     id="metadata12">
    <rdf:RDF>
      <cc:Work
         rdf:about="">
        <dc:format>image/svg+xml</dc:format>
        <dc:type
           rdf:resource="http://purl.org/dc/dcmitype/StillImage" />
      </cc:Work>
    </rdf:RDF>
  </metadata>
  <defs
     id="defs1885">
    <clipPath
       id="clp4">
      <path
         d="M 0,216.95 0,0 l 362.68,0 0,216.95 -362.68,0 z"
         inkscape:connector-curvature="0"
         id="path5311" />
    </clipPath>
    <clipPath
       id="clp3">
      <path
         d="m 225,-404.5 0,809 450,0 0,-809 -450,0 z"
         inkscape:connector-curvature="0"
         id="path5292" />
    </clipPath>
  </defs>
  <g
     transform="translate(546.5054,-272.8066)"
     id="layer1">
    <path
       d="m 146.80955,478.13892 c -3.01685,19.39401 -9.48153,37.49518 -19.82519,51.71757 -8.6194,11.6365 -19.82494,14.22219 -24.56583,6.03372 -3.447792,-5.60276 -3.878752,-13.36051 -0.86189,-20.68707 3.01686,-8.61964 8.61964,-16.80809 13.36051,-21.97991 0,0 13.3603,-13.79147 34.04737,-28.87578 0,0 -1.72401,10.34365 -2.15497,13.79147 z M 5.0173522,351.43079 c -5.17183299,9.05057 -21.9801522,39.65012 -27.1517412,46.97692 -5.602793,7.32656 -22.411113,28.01363 -29.306712,25.85868 0,0 -0.43096,-22.41087 22.842043,-49.13167 10.343406,-11.6365 22.8417989,-21.11803 33.6164102,-25.85866 l 0,2.15473 z M 236.88417,415.2158 c -22.8418,0 -50.85543,10.77461 -71.11156,21.98015 0,-1.72402 2.5859,-31.89261 2.5859,-38.35728 0,-2.58593 -1.29282,-5.17183 -3.44779,-6.03374 -5.60278,-3.01686 -11.20557,0 -12.49838,1.72404 -6.03374,9.48152 -13.36055,20.2559 -15.94621,23.70368 -6.03374,7.3268 -24.13488,26.72081 -31.03075,24.13489 0,0 1.29308,-22.41085 25.85892,-47.40764 11.63651,-11.20554 23.70394,-18.10115 35.34019,-21.54896 6.03372,-1.72401 12.49863,0 15.08431,1.72378 1.29306,0.86191 3.44782,3.01685 4.30994,4.30993 1.72378,3.87875 1.72378,8.61941 -0.43095,15.51525 -0.86213,2.58592 -0.43117,8.18847 3.01686,9.05059 4.74065,1.29285 8.6194,-3.01685 9.91248,-6.03374 0.43093,-2.15494 1.29284,-4.74087 1.72377,-6.89584 1.72402,-7.75751 1.29309,-15.51524 -1.29284,-21.97991 -4.3097,-10.77437 -12.92932,-13.36027 -21.97991,-13.79123 -4.30994,0 -12.92934,1.29285 -14.2224,1.7238 -19.82494,4.74087 -32.75453,15.51525 -32.75453,15.51525 -13.79123,9.91269 -29.30647,28.87575 -36.633275,48.26976 -4.740643,1.72401 -8.619396,3.44781 -9.912476,3.87874 0,0 15.084309,-43.95982 15.946199,-48.26952 0.43119,-3.44782 4.309942,-9.05057 -2.585687,-18.5321 -6.033708,-8.18871 -19.394221,2.15473 -19.394221,2.15473 -7.75752,6.03371 -18.10117,16.37737 -30.599563,32.7545 l 1.724026,-9.05057 c 1.292836,-5.60279 0.861906,-12.06743 -4.309927,-15.51525 -6.464669,-4.3097 -12.498377,7.32656 -12.498377,7.32656 -3.878768,6.89584 -20.686858,43.96007 -20.686858,43.96007 -0.86212,-6.03372 2.585687,-22.84204 2.585687,-22.84204 1.293065,-6.03372 6.464669,-30.59956 7.326804,-35.77114 0.861875,-5.17183 -1.724041,-11.20557 -5.602794,-14.22243 3.878753,-1.29305 8.188695,-3.87874 8.188695,-8.61961 0,-9.48153 -11.636502,-7.32659 -11.636502,-7.32659 -25.427944,3.87877 -43.52887,22.41087 -43.52887,22.41087 -15.946445,12.92934 -34.478545,40.94297 -35.771381,64.21597 -1.724011,23.27299 24.565809,35.34042 40.512008,18.53209 9.481531,-9.48152 16.808335,-22.8418 21.5489779,-30.59952 -6.8956139,31.03048 -2.585916,49.99354 12.0674322,46.97668 6.0337389,-1.29284 12.4983929,-10.77437 17.6702099,-21.11779 1.292852,2.15473 -0.43093,3.01686 6.464669,7.75752 5.602794,3.44779 11.205572,-7.32659 11.205572,-7.32659 2.585901,-6.89584 14.653119,-32.75449 33.185449,-43.96006 0,0 -12.929582,40.94321 -13.360512,43.09794 0,0 -5.171818,14.65335 -1.292836,18.96329 4.740658,6.03372 13.360268,0.43096 13.360268,0.43096 0,0 7.757749,-5.17183 15.9462,-9.0506 2.154971,18.96306 24.134882,28.87554 39.650122,14.65336 10.77461,-9.9127 21.54899,-26.72079 21.54899,-26.72079 -0.43095,4.74066 -1.29284,15.9462 -1.7238,17.67021 -22.84204,14.65312 -35.77136,27.5827 -35.77136,27.5827 -12.49841,11.63626 -26.289854,29.30647 -28.01365,51.71758 -0.861891,10.34341 2.154971,20.25587 7.326559,26.28961 4.740888,5.60276 12.929581,6.46467 19.394251,5.17183 14.22216,-2.58593 27.15174,-15.9462 35.34019,-34.04737 4.30994,-9.48152 7.75775,-20.25613 9.91248,-31.03048 2.15497,-8.61964 3.87899,-17.67024 4.74087,-26.28985 0.86189,-3.87877 1.29285,-8.61964 1.72402,-12.49839 19.82496,-12.06745 42.23581,-22.84206 71.54252,-25.85892 6.03374,-0.86189 7.32658,-3.87874 7.32658,-6.46467 0.43117,-3.01686 -1.29284,-6.03371 -6.03374,-6.03371 z m -534.41451,-14.65312 c -1.29309,33.61641 -18.9633,45.25267 -18.9633,45.25267 -3.01685,-4.3097 -13.79123,-28.01363 0.43117,-74.99034 3.44781,-10.77458 7.32656,-20.25611 10.77437,-28.01362 5.60279,9.91248 9.0506,31.03048 7.75776,57.75129 z m -37.92635,-29.30671 c -2.15497,-7.32656 -6.03372,-14.2224 -13.79123,-18.96305 12.06744,-15.51525 21.11802,-19.82519 28.44458,-19.39423 -6.03371,11.63647 -11.20554,24.99701 -14.65335,38.35728 z m -9.91249,32.75452 c -0.43093,13.36028 -9.48153,27.58267 -14.2224,33.61641 -5.17158,6.46467 -9.48152,5.17159 -9.48152,5.17159 -5.60279,-13.79123 -5.60279,-48.70072 11.63649,-78.43815 12.06743,5.17162 12.06743,28.01366 12.06743,39.65015 z m 200.40541,-20.68709 c 16.80832,-43.95983 32.32356,-40.08106 33.61641,-36.20231 1.29305,2.5859 -6.03351,29.30671 -36.63306,45.68384 0.86191,-3.01686 1.7238,-6.03372 3.01665,-9.48153 z M 23.980398,298.42037 c 2.585902,0 4.309698,0.43095 5.171589,0.86191 1.29308,0.86213 14.653363,3.01686 15.084309,-9.48153 0.431174,-12.92934 -17.239036,-11.63649 -17.239036,-11.63649 -7.757749,0 -60.337221,3.01685 -98.263328,80.59333 1.723796,-9.0506 2.585687,-20.25614 3.447807,-30.59956 0,0 0.861891,-12.92934 -6.464669,-13.79146 -9.481531,-0.86189 -9.481531,12.49838 -9.481531,12.49838 -1.29305,17.23928 -3.878981,33.18548 -8.188679,56.02752 -9.48153,21.54895 -26.72078,51.71758 -47.83881,49.13165 0,0 -10.34341,-2.15497 -11.63649,-17.67021 9.48152,-4.3097 19.39422,-9.48153 26.72078,-15.9462 0,0 29.737659,-22.41108 34.478316,-56.8894 0,0 0.431175,-7.32656 -6.033737,-14.22216 -6.895599,-6.89587 -38.357039,-2.58593 -56.027249,28.44458 -5.17183,9.91246 -12.06746,27.58267 -14.65336,44.82195 -2.58592,0.86189 -5.17161,1.29284 -8.18847,2.15473 0,-2.5859 1.7238,-9.48153 1.7238,-10.77437 0.43093,-1.29306 6.46467,-16.37737 7.3268,-18.5321 0.86189,-1.72401 2.15473,-7.3268 -3.87898,-15.51524 -6.46467,-7.75775 -15.9462,-3.01688 -15.9462,-3.01688 -9.48153,3.44781 -18.96306,12.92934 -27.15177,23.70371 4.30994,-18.5321 7.75776,-34.4783 7.75776,-39.21896 0.86188,-9.91269 -2.5859,-10.34365 -5.17183,-12.49862 -2.58593,-2.15473 -9.05057,-5.60254 -12.49839,-3.44779 -2.58592,1.72402 -15.08431,11.20554 -29.3067,31.89261 -1.29285,-23.70392 -10.34342,-56.02749 -21.97992,-62.49216 -11.63649,-6.46467 -16.37715,-6.89563 -22.84182,1.29306 -2.5859,3.01685 -9.48153,12.06745 -16.37737,24.56584 -17.23904,-6.46468 -38.788,1.72377 -59.04414,30.59955 -15.9462,3.44781 -32.32356,19.39398 -39.65012,43.09794 0,0 -2.15497,9.05057 3.44781,12.06742 5.17183,3.01686 9.05057,-4.30991 9.05057,-4.30991 2.58593,-6.89563 6.46467,-14.22218 11.20554,-20.2559 -14.22239,41.3739 3.01686,73.26654 23.70396,75.42127 0,0 11.63626,2.58592 18.96305,-6.46467 2.5859,-3.01686 6.46467,-9.05057 9.05057,-17.23905 3.01686,12.92935 9.05057,24.56584 21.11803,26.72057 5.17159,0.86213 14.65311,1.72402 21.97991,-10.34341 6.03371,-10.34342 21.97991,-40.51204 10.34342,-87.91989 -3.01686,-12.49838 -8.18845,-22.84183 -15.08429,-30.16862 9.9127,-16.80809 18.10114,-23.70369 18.10114,-23.70369 16.3774,30.59955 8.18871,99.55615 4.7409,126.27696 -1.29308,9.48152 -2.58593,31.89237 6.8956,34.47829 5.60278,1.72402 9.91248,-6.46467 12.49839,-18.10116 l 0,0 c 0,-0.43093 0,-0.43093 0,-0.86189 1.72403,-7.32656 3.01688,-15.9462 3.87877,-23.70393 9.48152,-64.21596 31.8926,-77.57626 31.8926,-77.57626 0,9.48153 -15.94618,64.21597 -16.80832,66.80189 -0.43093,2.5859 -1.72377,12.06743 2.58593,15.51524 5.17182,4.74066 10.77461,-0.43095 15.08431,-8.61964 4.30991,-8.18868 24.13488,-37.49515 32.32356,-40.08108 0,0 -8.18868,22.41087 -9.91272,26.72081 -1.29282,4.3097 0.4312,9.05057 1.29308,9.91246 0.86189,1.29284 4.30971,8.18871 13.36028,7.75751 3.44781,-0.43093 9.48152,-2.15473 15.08431,-4.3097 0.86188,5.17183 2.15497,9.48153 4.74087,13.3603 10.34344,16.8083 37.92611,25.42794 64.215959,-9.0506 -1.29306,9.91273 -2.585899,17.23928 -3.878979,25.42797 -1.29285,8.18844 -2.58569,25.85866 4.740889,25.85866 12.92932,0 11.636484,-12.92932 16.377127,-35.34019 C -52.733952,306.17812 19.670456,298.85132 23.980398,298.42037 z M -444.92556,506.5835 c -6.89561,-7.32656 -9.91246,-23.70393 -11.63625,-42.66698 3.01684,2.5859 6.89561,5.17182 9.05057,6.89584 3.4478,2.15473 5.60253,0.43095 5.60253,0.43095 17.67021,-38.3573 28.44482,-42.23605 28.44482,-42.23605 -4.74087,66.80187 -31.46167,77.57624 -31.46167,77.57624 z m 42.23605,-93.52244 c -10.34342,-6.03371 -15.51525,-7.75772 -19.39402,-4.74087 0,0 7.32656,-37.92611 8.1887,-49.99356 0.8619,-12.49839 4.30969,-48.7007 -15.51549,-65.07809 -19.82494,-15.9462 -44.8217,-6.46467 -65.93974,13.79147 -18.96306,18.5321 -41.37414,61.1991 -45.25291,104.29704 -2.5859,24.99677 3.87877,48.26977 8.61964,61.63004 0,0 3.44782,8.18868 9.48153,6.46467 4.74087,-0.86189 1.72401,-10.77437 1.72401,-10.77437 -14.22239,-54.73444 9.0506,-98.26331 21.97993,-122.82915 12.06744,-22.84203 50.42448,-47.8388 62.06098,-38.35728 12.06745,9.48153 0.43096,72.40465 -2.5859,82.31711 -2.15497,6.89563 -12.49839,41.80509 -18.10117,60.33722 -0.86189,-29.30671 1.29308,-59.47531 1.72401,-68.09495 0,0 2.15497,-15.51524 -8.61961,-18.10093 -16.8081,-3.87898 -15.9462,5.17159 -12.92934,6.46467 1.29284,0.86189 0.86189,5.17159 0.86189,5.17159 -0.43096,12.49839 -2.5859,75.42151 2.15498,96.97049 5.17157,24.56581 16.37711,47.40785 30.59954,52.14851 14.22216,4.30994 30.59955,-6.89563 41.80485,-43.95983 11.20554,-37.49539 9.0506,-61.63006 -0.86188,-67.66378"
       inkscape:connector-curvature="0"
       id="path6161"
       style="fill:#005aaa;fill-rule:nonzero;stroke:none" />
  </g>
</svg>

<?xml version="1.0" encoding="UTF-8" standalone="no"?>
<!-- Created with Inkscape (http://www.inkscape.org/) -->
<svg
   xmlns:svg="http://www.w3.org/2000/svg"
   xmlns="http://www.w3.org/2000/svg"
   version="1.0"
   width="794.79919"
   height="290.48032"
   id="svg1883">
  <defs
     id="defs1885"><clipPath
   id="clp4">
<path
   d="M 0,216.95 L 0,0 L 362.68,0 L 362.68,216.95 L 0,216.95 z "
   id="path5311" />

</clipPath>
<clipPath
   id="clp3">
<path
   d="M 225,-404.5 L 225,404.5 L 675,404.5 L 675,-404.5 L 225,-404.5 z "
   id="path5292" />

</clipPath>

  
  
 
   
   
   
   
   
   
   
   
   
   
  </defs>
  <g
     transform="translate(546.5054,-272.8066)"
     id="layer1">
    <path
       d="M 146.80955,478.13892 C 143.7927,497.53293 137.32802,515.6341 126.98436,529.85649 C 118.36496,541.49299 107.15942,544.07868 102.41853,535.89021 C 98.970738,530.28745 98.539778,522.5297 101.55664,515.20314 C 104.5735,506.5835 110.17628,498.39505 114.91715,493.22323 C 114.91715,493.22323 128.27745,479.43176 148.96452,464.34745 C 148.96452,464.34745 147.24051,474.6911 146.80955,478.13892 z M 5.0173522,351.43079 C -0.15448079,360.48136 -16.9628,391.08091 -22.134389,398.40771 C -27.737182,405.73427 -44.545502,426.42134 -51.441101,424.26639 C -51.441101,424.26639 -51.872061,401.85552 -28.599058,375.13472 C -18.255652,363.49822 -5.7572591,354.01669 5.0173522,349.27606 L 5.0173522,351.43079 z M 236.88417,415.2158 C 214.04237,415.2158 186.02874,425.99041 165.77261,437.19595 C 165.77261,435.47193 168.35851,405.30334 168.35851,398.83867 C 168.35851,396.25274 167.06569,393.66684 164.91072,392.80493 C 159.30794,389.78807 153.70515,392.80493 152.41234,394.52897 C 146.3786,404.01049 139.05179,414.78487 136.46613,418.23265 C 130.43239,425.55945 112.33125,444.95346 105.43538,442.36754 C 105.43538,442.36754 106.72846,419.95669 131.2943,394.9599 C 142.93081,383.75436 154.99824,376.85875 166.63449,373.41094 C 172.66821,371.68693 179.13312,373.41094 181.7188,375.13472 C 183.01186,375.99663 185.16662,378.15157 186.02874,379.44465 C 187.75252,383.3234 187.75252,388.06406 185.59779,394.9599 C 184.73566,397.54582 185.16662,403.14837 188.61465,404.01049 C 193.3553,405.30334 197.23405,400.99364 198.52713,397.97675 C 198.95806,395.82181 199.81997,393.23588 200.2509,391.08091 C 201.97492,383.3234 201.54399,375.56567 198.95806,369.101 C 194.64836,358.32663 186.02874,355.74073 176.97815,355.30977 C 172.66821,355.30977 164.04881,356.60262 162.75575,357.03357 C 142.93081,361.77444 130.00122,372.54882 130.00122,372.54882 C 116.20999,382.46151 100.69475,401.42457 93.367945,420.81858 C 88.627302,422.54259 84.748549,424.26639 83.455469,424.69732 C 83.455469,424.69732 98.539778,380.7375 99.401668,376.4278 C 99.832858,372.97998 103.71161,367.37723 96.815981,357.8957 C 90.782273,349.70699 77.42176,360.05043 77.42176,360.05043 C 69.66424,366.08414 59.32059,376.4278 46.822197,392.80493 L 48.546223,383.75436 C 49.839059,378.15157 49.408129,371.68693 44.236296,368.23911 C 37.771627,363.92941 31.737919,375.56567 31.737919,375.56567 C 27.859151,382.46151 11.051061,419.52574 11.051061,419.52574 C 10.188941,413.49202 13.636748,396.6837 13.636748,396.6837 C 14.929813,390.64998 20.101417,366.08414 20.963552,360.91256 C 21.825427,355.74073 19.239511,349.70699 15.360758,346.69013 C 19.239511,345.39708 23.549453,342.81139 23.549453,338.07052 C 23.549453,328.58899 11.912951,330.74393 11.912951,330.74393 C -13.514993,334.6227 -31.615919,353.1548 -31.615919,353.1548 C -47.562364,366.08414 -66.094464,394.09777 -67.3873,417.37077 C -69.111311,440.64376 -42.821491,452.71119 -26.875292,435.90286 C -17.393761,426.42134 -10.066957,413.06106 -5.3263141,405.30334 C -12.221928,436.33382 -7.9122301,455.29688 6.7411181,452.28002 C 12.774857,450.98718 19.239511,441.50565 24.411328,431.16223 C 25.70418,433.31696 23.980398,434.17909 30.875997,438.91975 C 36.478791,442.36754 42.081569,431.59316 42.081569,431.59316 C 44.66747,424.69732 56.734688,398.83867 75.267018,387.6331 C 75.267018,387.6331 62.337436,428.57631 61.906506,430.73104 C 61.906506,430.73104 56.734688,445.38439 60.61367,449.69433 C 65.354328,455.72805 73.973938,450.12529 73.973938,450.12529 C 73.973938,450.12529 81.731687,444.95346 89.920138,441.07469 C 92.075109,460.03775 114.05502,469.95023 129.57026,455.72805 C 140.34487,445.81535 151.11925,429.00726 151.11925,429.00726 C 150.6883,433.74792 149.82641,444.95346 149.39545,446.67747 C 126.55341,461.33059 113.62409,474.26017 113.62409,474.26017 C 101.12568,485.89643 87.334236,503.56664 85.61044,525.97775 C 84.748549,536.32116 87.765411,546.23362 92.936999,552.26736 C 97.677887,557.87012 105.86658,558.73203 112.33125,557.43919 C 126.55341,554.85326 139.48299,541.49299 147.67144,523.39182 C 151.98138,513.9103 155.42919,503.13569 157.58392,492.36134 C 159.73889,483.7417 161.46291,474.6911 162.32479,466.07149 C 163.18668,462.19272 163.61764,457.45185 164.04881,453.5731 C 183.87377,441.50565 206.28462,430.73104 235.59133,427.71418 C 241.62507,426.85229 242.91791,423.83544 242.91791,421.24951 C 243.34908,418.23265 241.62507,415.2158 236.88417,415.2158 z M -297.53034,400.56268 C -298.82343,434.17909 -316.49364,445.81535 -316.49364,445.81535 C -319.51049,441.50565 -330.28487,417.80172 -316.06247,370.82501 C -312.61466,360.05043 -308.73591,350.5689 -305.2881,342.81139 C -299.68531,352.72387 -296.2375,373.84187 -297.53034,400.56268 z M -335.45669,371.25597 C -337.61166,363.92941 -341.49041,357.03357 -349.24792,352.29292 C -337.18048,336.77767 -328.1299,332.46773 -320.80334,332.89869 C -326.83705,344.53516 -332.00888,357.8957 -335.45669,371.25597 z M -345.36918,404.01049 C -345.80011,417.37077 -354.85071,431.59316 -359.59158,437.6269 C -364.76316,444.09157 -369.0731,442.79849 -369.0731,442.79849 C -374.67589,429.00726 -374.67589,394.09777 -357.43661,364.36034 C -345.36918,369.53196 -345.36918,392.374 -345.36918,404.01049 z M -144.96377,383.3234 C -128.15545,339.36357 -112.64021,343.24234 -111.34736,347.12109 C -110.05431,349.70699 -117.38087,376.4278 -147.98042,392.80493 C -147.11851,389.78807 -146.25662,386.77121 -144.96377,383.3234 z M 23.980398,298.42037 C 26.5663,298.42037 28.290096,298.85132 29.151987,299.28228 C 30.445067,300.14441 43.80535,302.29914 44.236296,289.80075 C 44.66747,276.87141 26.99726,278.16426 26.99726,278.16426 C 19.239511,278.16426 -33.339961,281.18111 -71.266068,358.75759 C -69.542272,349.70699 -68.680381,338.50145 -67.818261,328.15803 C -67.818261,328.15803 -66.95637,315.22869 -74.28293,314.36657 C -83.764461,313.50468 -83.764461,326.86495 -83.764461,326.86495 C -85.057511,344.10423 -87.643442,360.05043 -91.95314,382.89247 C -101.43467,404.44142 -118.67392,434.61005 -139.79195,432.02412 C -139.79195,432.02412 -150.13536,429.86915 -151.42844,414.35391 C -141.94692,410.04421 -132.03422,404.87238 -124.70766,398.40771 C -124.70766,398.40771 -94.970001,375.99663 -90.229344,341.51831 C -90.229344,341.51831 -89.798169,334.19175 -96.263081,327.29615 C -103.15868,320.40028 -134.62012,324.71022 -152.29033,355.74073 C -157.46216,365.65319 -164.35779,383.3234 -166.94369,400.56268 C -169.52961,401.42457 -172.1153,401.85552 -175.13216,402.71741 C -175.13216,400.13151 -173.40836,393.23588 -173.40836,391.94304 C -172.97743,390.64998 -166.94369,375.56567 -166.08156,373.41094 C -165.21967,371.68693 -163.92683,366.08414 -169.96054,357.8957 C -176.42521,350.13795 -185.90674,354.87882 -185.90674,354.87882 C -195.38827,358.32663 -204.8698,367.80816 -213.05851,378.58253 C -208.74857,360.05043 -205.30075,344.10423 -205.30075,339.36357 C -204.43887,329.45088 -207.88665,329.01992 -210.47258,326.86495 C -213.05851,324.71022 -219.52315,321.26241 -222.97097,323.41716 C -225.55689,325.14118 -238.05528,334.6227 -252.27767,355.30977 C -253.57052,331.60585 -262.62109,299.28228 -274.25759,292.81761 C -285.89408,286.35294 -290.63474,285.92198 -297.09941,294.11067 C -299.68531,297.12752 -306.58094,306.17812 -313.47678,318.67651 C -330.71582,312.21183 -352.26478,320.40028 -372.52092,349.27606 C -388.46712,352.72387 -404.84448,368.67004 -412.17104,392.374 C -412.17104,392.374 -414.32601,401.42457 -408.72323,404.44142 C -403.5514,407.45828 -399.67266,400.13151 -399.67266,400.13151 C -397.08673,393.23588 -393.20799,385.90933 -388.46712,379.87561 C -402.68951,421.24951 -385.45026,453.14215 -364.76316,455.29688 C -364.76316,455.29688 -353.1269,457.8828 -345.80011,448.83221 C -343.21421,445.81535 -339.33544,439.78164 -336.74954,431.59316 C -333.73268,444.52251 -327.69897,456.159 -315.63151,458.31373 C -310.45992,459.17586 -300.9784,460.03775 -293.6516,447.97032 C -287.61789,437.6269 -271.67169,407.45828 -283.30818,360.05043 C -286.32504,347.55205 -291.49663,337.2086 -298.39247,329.88181 C -288.47977,313.07372 -280.29133,306.17812 -280.29133,306.17812 C -263.91393,336.77767 -272.10262,405.73427 -275.55043,432.45508 C -276.84351,441.9366 -278.13636,464.34745 -268.65483,466.93337 C -263.05205,468.65739 -258.74235,460.4687 -256.15644,448.83221 L -256.15644,448.83221 C -256.15644,448.40128 -256.15644,448.40128 -256.15644,447.97032 C -254.43241,440.64376 -253.13956,432.02412 -252.27767,424.26639 C -242.79615,360.05043 -220.38507,346.69013 -220.38507,346.69013 C -220.38507,356.17166 -236.33125,410.9061 -237.19339,413.49202 C -237.62432,416.07792 -238.91716,425.55945 -234.60746,429.00726 C -229.43564,433.74792 -223.83285,428.57631 -219.52315,420.38762 C -215.21324,412.19894 -195.38827,382.89247 -187.19959,380.30654 C -187.19959,380.30654 -195.38827,402.71741 -197.11231,407.02735 C -198.40513,411.33705 -196.68111,416.07792 -195.81923,416.93981 C -194.95734,418.23265 -191.50952,425.12852 -182.45895,424.69732 C -179.01114,424.26639 -172.97743,422.54259 -167.37464,420.38762 C -166.51276,425.55945 -165.21967,429.86915 -162.63377,433.74792 C -152.29033,450.55622 -124.70766,459.17586 -98.417811,424.69732 C -99.710871,434.61005 -101.00371,441.9366 -102.29679,450.12529 C -103.58964,458.31373 -104.88248,475.98395 -97.555901,475.98395 C -84.626581,475.98395 -85.919417,463.05463 -81.178774,440.64376 C -52.733952,306.17812 19.670456,298.85132 23.980398,298.42037 z M -444.92556,506.5835 C -451.82117,499.25694 -454.83802,482.87957 -456.56181,463.91652 C -453.54497,466.50242 -449.6662,469.08834 -447.51124,470.81236 C -444.06344,472.96709 -441.90871,471.24331 -441.90871,471.24331 C -424.2385,432.88601 -413.46389,429.00726 -413.46389,429.00726 C -418.20476,495.80913 -444.92556,506.5835 -444.92556,506.5835 z M -402.68951,413.06106 C -413.03293,407.02735 -418.20476,405.30334 -422.08353,408.32019 C -422.08353,408.32019 -414.75697,370.39408 -413.89483,358.32663 C -413.03293,345.82824 -409.58514,309.62593 -429.41032,293.24854 C -449.23526,277.30234 -474.23202,286.78387 -495.35006,307.04001 C -514.31312,325.57211 -536.7242,368.23911 -540.60297,411.33705 C -543.18887,436.33382 -536.7242,459.60682 -531.98333,472.96709 C -531.98333,472.96709 -528.53551,481.15577 -522.5018,479.43176 C -517.76093,478.56987 -520.77779,468.65739 -520.77779,468.65739 C -535.00018,413.92295 -511.72719,370.39408 -498.79786,345.82824 C -486.73042,322.98621 -448.37338,297.98944 -436.73688,307.47096 C -424.66943,316.95249 -436.30592,379.87561 -439.32278,389.78807 C -441.47775,396.6837 -451.82117,431.59316 -457.42395,450.12529 C -458.28584,420.81858 -456.13087,390.64998 -455.69994,382.03034 C -455.69994,382.03034 -453.54497,366.5151 -464.31955,363.92941 C -481.12765,360.05043 -480.26575,369.101 -477.24889,370.39408 C -475.95605,371.25597 -476.387,375.56567 -476.387,375.56567 C -476.81796,388.06406 -478.9729,450.98718 -474.23202,472.53616 C -469.06045,497.10197 -457.85491,519.94401 -443.63248,524.68467 C -429.41032,528.99461 -413.03293,517.78904 -401.82763,480.72484 C -390.62209,443.22945 -392.77703,419.09478 -402.68951,413.06106"
       style="fill:#005aaa;fill-rule:nonzero;stroke:none"
       id="path6161" />
  </g>
</svg>
